X:1
P:AABBB
M:6/8
L:1/8
Q:116
K:GDor
d|d2d B2G|d3-d2 e/2f/2|g2f g2a|b3-b2 B|
a|a2a f2d|a3- a2f|g2f g2a|b3-b2 B||
|B2B A2G|f3 g3|a2B A2G|G3-G2||

